file/state-farm.svg

<svg clip-rule="evenodd" fill-rule="evenodd" stroke-linejoin="round" stroke-miterlimit="1.41421" viewBox="0 0 560 400" xmlns="http://www.w3.org/2000/svg"><path d="m31.364 12.635c-.96 0-1.887.091-2.768.256 1.925-1.374 3.11-3.265 3.11-5.352 0-4.199-4.768-7.54-10.688-7.54-5.919.001-10.638 3.342-10.638 7.541 0 2.09 1.163 3.981 3.069 5.355-.898-.169-1.84-.26-2.812-.26-5.919 0-10.637 3.342-10.637 7.537 0 4.192 4.693 7.597 10.614 7.597 5.039 0 9.263-2.464 10.413-5.784 1.121 3.32 5.272 5.784 10.312 5.784 5.92 0 10.715-3.404 10.715-7.597 0-4.195-4.773-7.537-10.69-7.537zm119.368-4.261c-1.085-.765-2.817-1.158-5.193-1.158-1.173 0-2.356.113-3.544.338-1.062.202-1.721.373-2.282.534l-.154.156-.771 3.949.249.15c.495-.228 1.221-.508 2.179-.847.98-.345 1.882-.518 2.696-.518 1.191 0 2.099.163 2.716.5.636.342 1.092 1.093 1.089 1.919 0 .204-.017.383-.045.545-.031.152-.05.264-.058.328l-.013.084s-.385.027-.794.062c-.27.026-.614.065-1.012.111-.651.07-1.4.162-2.054.272-1.568.261-5.98.948-7.304 3.903-1.388 2.421-1.151 5.633.212 7.196.481.553 1.214 1.073 2.205 1.273l-.002.003c.043.015.195.034.229.042 3.815.59 6.552-2.734 6.552-2.734l-.409 2.049.168.144 4.286-.144.178-.155 2.523-12.672c.052-.267.095-.583.127-.942.028-.364.046-.659.046-.876-.003-1.622-.737-2.748-1.82-3.512zm-61.3 0c-1.083-.765-2.813-1.158-5.188-1.158-1.177 0-2.358.113-3.542.338-1.064.202-1.723.373-2.286.534l-.153.156-.771 3.949.249.15c.495-.228 1.222-.508 2.178-.847.981-.345 1.882-.518 2.696-.518 1.192 0 2.094.163 2.718.5.633.342 1.086 1.093 1.086 1.919 0 .204-.014.383-.042.545-.033.152-.051.264-.059.328l-.012.084s-.384.027-.793.062c-.269.026-.617.065-1.012.111-.652.07-1.402.162-2.053.272-1.571.261-5.981.948-7.306 3.903-1.388 2.421-1.15 5.633.213 7.196.477.553 1.212 1.073 2.204 1.273l-.002.003c.042.015.195.034.227.042 3.817.59 6.554-2.734 6.554-2.734l-.41 2.049.167.144 4.289-.144.177-.155 2.52-12.672c.055-.267.098-.583.133-.942.025-.364.044-.659.044-.876-.004-1.622-.735-2.748-1.826-3.512zm-25.843-5.843-.898 4.624-.198.063c-.357-.502-.573-.699-1.07-1.083-1.104-.85-2.414-1.331-3.751-1.331-1.048 0-1.919.327-2.523.872-.609.543-.955 1.316-.955 2.179.003 1.632 1.12 2.428 3.105 3.617l.772.438c1.663 1.09 4.246 2.762 4.246 6.557-.006 4.313-2.769 8.64-9.398 8.65-1.625 0-3.216-.291-4.747-.862-1.033-.396-1.531-.739-2.156-1.202l-.052-.297.88-4.511.197-.066c.399.516.899.938 1.647 1.433 1.597 1.065 3.129 1.179 3.782 1.179 2.34-.002 4.18-1.338 4.18-3.413-.002-1.858-1.471-2.789-3.005-3.693l-1.061-.654c-1.67-1.092-3.985-2.577-3.992-6.3 0-1.432.412-3.487 1.68-5.17 1.672-2.213 4.301-3.008 6.949-3.008 3.409 0 5.359 1.207 6.273 1.792zm53.354 5.632.057-.091-.061.091c-1.033-.709-2.527-1.038-3.99-1.038-3.316.003-5.686 1.643-7.245 3.947-1.55 2.311-2.28 5.288-2.28 7.938 0 1.915.288 3.701 1.455 5.313.575.787 1.969 2.678 6.475 2.684 3.129-.002 4.611-.813 5.414-1.282l.134-.181c.157-.686.685-3.801.9-4.582l-.162-.124c-1.582 1.254-3.307 2.17-5.266 2.17-1.314 0-2.313-.312-2.987-.914-.672-.597-1.001-1.48-1.001-2.574 0-.403.033-.771.064-1.174l.01-.095.092-.003c3.063-.078 4.624-.12 7.189-.12.838 0 1.783.004 2.924.013l.198-.138c.255-1.189.531-2.549.531-4.222 0-1.485-.158-4.125-2.451-5.618zm-13.685 3.126-.204.202-2.956-.076-1.369 6.446c-.189.808-.607 2.825-.607 3.475-.004.607.225 1.021.545 1.267.316.249.712.331 1.066.332.822 0 1.109-.229 1.657-.438l.097.09-.727 3.713-.25.243c-1.012.214-1.765.39-2.83.39-2.75-.016-4.735-.939-4.746-4.144 0-1.5.606-4.231 1.057-6.261l1.091-5.117-2.321.079-.14-.202.679-3.606.211-.116h2.358l.943-4.749.184-.208c2.361-.604 3.042-.895 5.193-1.603l.114.128-.713 3.059-.739 3.445 3.028-.093.079.158zm-28.567 0-.206.202-2.953-.076-1.368 6.446c-.192.808-.612 2.825-.612 3.475-.001.607.226 1.021.545 1.267.32.249.714.331 1.067.332.823 0 1.111-.229 1.657-.438l.098.09-.726 3.713-.25.243c-1.008.214-1.765.39-2.832.39-2.744-.016-4.733-.939-4.744-4.144 0-1.5.608-4.231 1.057-6.261l1.09-5.117-2.322.079-.14-.202.681-3.606.21-.116h2.357l.944-4.749.185-.208c2.357-.604 3.04-.895 5.195-1.603l.11.128-.713 3.059-.733 3.447 3.022-.093.083.158zm117.642.446c0 1.147-.259 2.338-.513 3.497l-2.187 11.166-.168.135-4.928.174-.122-.174s2.525-12.334 2.525-12.947c0-.559-.295-2.057-1.863-2.057-1.235 0-2.512 1.247-2.512 1.247l-2.661 13.623-.164.135-2.121.074-1.899.064-.938.031-.057-.077-.061-.093s.381-1.877.853-4.202h-.013c.736-3.636 1.677-8.371 1.677-8.745 0-.559-.294-2.057-1.864-2.057-1.231 0-2.508 1.247-2.508 1.247l-2.662 13.623-.168.135-.761.026-4.194.141-.107-.167 3.694-18.966.186-.187 4.915-.463.199.199-.521 2.67s2.372-2.6 5.396-2.66c2.822-.053 3.412 2.66 3.412 2.66s2.808-2.722 5.803-2.66c1.515.012 4.324.68 4.332 4.608zm-25.205-4.777-1.05 5.45-.22.223c-.3-.054-.682-.098-1.134-.098-1.415 0-3.427.454-5.001 2.54l-.017.017-2.168 11.309-.153.135-4.708.143-.122-.124 3.703-18.985.201-.199 4.66-.451.184.199-.537 2.75.229-.208c.974-.883 1.838-1.493 2.803-2.043.956-.55 1.915-.823 2.879-.823.093 0 .188 0 .288.004zm-27.416-1.752-.163.181-7.801-.019-1.269 6.509 6.827-.206.101.162c-.562 1.871-.692 2.4-1.07 4.032l-.173.165-6.492-.014-.853 4.516-1.08 5.865-.144.135-5.591.144-.068-.144.969-4.993 1.483-7.049c1.118-5.477 1.438-7.226 2.495-13.193l.168-.164h8.169l5.188-.136.1.136zm-108.374 20.63c-2.448 0-4.72-.656-6.4-1.864-1.457-1.043-2.286-2.392-2.286-3.8.006-1.891 1.446-3.168 2.288-3.767 1.682-1.189 3.965-1.838 6.423-1.842 2.467.004 4.756.652 6.458 1.847.849.598 2.298 1.878 2.302 3.762-.023 3.148-4.072 5.657-8.785 5.664zm-20.724 0c-2.451 0-4.721-.656-6.403-1.864-1.454-1.043-2.281-2.392-2.281-3.8.008-1.891 1.443-3.171 2.282-3.767 1.686-1.189 3.967-1.838 6.426-1.842 2.467.004 4.757.652 6.454 1.847.85.598 2.305 1.875 2.313 3.762-.029 3.148-4.079 5.657-8.791 5.664zm5.378-8.764c-1.358-.821-3.259-1.338-5.382-1.338-2.125 0-4.015.517-5.363 1.334-1.351.822-2.144 1.921-2.147 3.104.003 1.187.792 2.302 2.14 3.134 1.342.823 3.229 1.351 5.354 1.355 2.125-.005 4.03-.532 5.392-1.359 1.365-.828 2.171-1.943 2.175-3.126-.005-1.179-.807-2.282-2.169-3.104zm20.781 0c-1.36-.821-3.262-1.338-5.386-1.338-2.123 0-4.016.517-5.361 1.334-1.351.821-2.142 1.921-2.144 3.107.002 1.183.789 2.298 2.138 3.13 1.343.823 3.229 1.351 5.352 1.355 2.123-.005 4.03-.532 5.394-1.359 1.365-.828 2.171-1.943 2.173-3.126-.002-1.178-.804-2.281-2.166-3.103zm109.546 3.972s-1.025 1.61-2.501 2.187c-1.481.573-2.55.121-2.968-.452-.338-.448-1.04-1.862.293-3.453 1.352-1.607 5.82-1.71 5.82-1.71zm-61.297 0s-1.022 1.61-2.5 2.187c-1.48.573-2.547.121-2.97-.452-.335-.448-1.036-1.862.3-3.453 1.347-1.607 5.819-1.71 5.819-1.71zm-63.992-2.68c-.464-1.337-1.428-2.531-2.743-3.476.863.161 1.768.247 2.701.247.96 0 1.887-.09 2.771-.256-1.311.946-2.274 2.141-2.729 3.485zm93.884-3.695-.017.087-3.002.038-2.968.039.027-.1.014-.044c.06-.208.125-.437.2-.67.204-.654.496-1.366 1.013-2.019.091-.111.186-.225.287-.331.92-1.006 1.791-1.162 2.355-1.162.795 0 1.377.318 1.751.791.063.083.116.164.168.257.185.315.298.673.339 1.048.02.134.027.275.027.41.001.562-.099 1.114-.194 1.656zm85.086-3.741c-.014 1.674-1.23 2.938-2.821 2.924-1.582-.013-2.784-1.296-2.771-2.97.014-1.708 1.213-2.946 2.836-2.933 1.574.013 2.77 1.305 2.756 2.979zm-5.225-.053c-.012 1.433 1.066 2.607 2.406 2.618 1.339.012 2.44-1.145 2.452-2.585.006-.686-.249-1.385-.679-1.848-.42-.456-1.087-.746-1.694-.751-1.417-.012-2.472 1.085-2.485 2.566zm-182.465-3.339c.007-1.891 1.443-3.168 2.285-3.763 1.684-1.197 3.966-1.842 6.424-1.842 2.466 0 4.756.648 6.453 1.842.849.599 2.302 1.878 2.309 3.763-.028 3.152-4.075 5.661-8.788 5.668-2.448 0-4.72-.655-6.397-1.861-1.461-1.047-2.286-2.396-2.286-3.807zm184.773 1.693c.354.004.519.021.721.09.35.12.573.455.57.833-.003.402-.255.719-.66.841l.663 1.596-.469-.003-.614-1.513-.032-.008-.296-.003-.316-.002-.05.008-.014 1.507-.426-.004.028-3.349zm-181.43 1.447c1.343.829 3.23 1.356 5.354 1.356 2.121 0 4.026-.527 5.389-1.356 1.368-.828 2.174-1.946 2.177-3.126-.003-1.183-.804-2.29-2.166-3.111-1.358-.82-3.258-1.336-5.385-1.34-2.123.004-4.013.52-5.362 1.34-1.35.822-2.143 1.925-2.146 3.108.003 1.186.794 2.301 2.139 3.129zm181.392.043c.413.004.571-.021.698-.119.131-.092.212-.259.213-.442.003-.242-.106-.419-.316-.495-.116-.054-.3-.07-.668-.074l-.359-.002-.011 1.129z" fill="#ed1d24" fill-rule="nonzero" transform="matrix(2.5 0 0 2.5 30 165.29)"/></svg>

<?xml version="1.0" encoding="UTF-8" standalone="no"?>
<!DOCTYPE svg PUBLIC "-//W3C//DTD SVG 1.1//EN" "http://www.w3.org/Graphics/SVG/1.1/DTD/svg11.dtd">
<svg width="100%" height="100%" viewBox="0 0 560 400" version="1.1" xmlns="http://www.w3.org/2000/svg" xmlns:xlink="http://www.w3.org/1999/xlink" xml:space="preserve" xmlns:serif="http://www.serif.com/" style="fill-rule:evenodd;clip-rule:evenodd;stroke-linejoin:round;stroke-miterlimit:1.41421;">
    <g transform="matrix(2.5,0,0,2.5,30,165.29)">
        <path d="M31.364,12.635C30.404,12.635 29.477,12.726 28.596,12.891C30.521,11.517 31.706,9.626 31.706,7.539C31.706,3.34 26.938,-0.001 21.018,-0.001C15.099,0 10.38,3.341 10.38,7.54C10.38,9.63 11.543,11.521 13.449,12.895C12.551,12.726 11.609,12.635 10.637,12.635C4.718,12.635 0,15.977 0,20.172C0,24.364 4.693,27.769 10.614,27.769C15.653,27.769 19.877,25.305 21.027,21.985C22.148,25.305 26.299,27.769 31.339,27.769C37.259,27.769 42.054,24.365 42.054,20.172C42.054,15.977 37.281,12.635 31.364,12.635ZM150.732,8.374C149.647,7.609 147.915,7.216 145.539,7.216C144.366,7.216 143.183,7.329 141.995,7.554C140.933,7.756 140.274,7.927 139.713,8.088L139.559,8.244L138.788,12.193L139.037,12.343C139.532,12.115 140.258,11.835 141.216,11.496C142.196,11.151 143.098,10.978 143.912,10.978C145.103,10.978 146.011,11.141 146.628,11.478C147.264,11.82 147.72,12.571 147.717,13.397C147.717,13.601 147.7,13.78 147.672,13.942C147.641,14.094 147.622,14.206 147.614,14.27L147.601,14.354C147.601,14.354 147.216,14.381 146.807,14.416C146.537,14.442 146.193,14.481 145.795,14.527C145.144,14.597 144.395,14.689 143.741,14.799C142.173,15.06 137.761,15.747 136.437,18.702C135.049,21.123 135.286,24.335 136.649,25.898C137.13,26.451 137.863,26.971 138.854,27.171L138.852,27.174C138.895,27.189 139.047,27.208 139.081,27.216C142.896,27.806 145.633,24.482 145.633,24.482L145.224,26.531L145.392,26.675L149.678,26.531L149.856,26.376L152.379,13.704C152.431,13.437 152.474,13.121 152.506,12.762C152.534,12.398 152.552,12.103 152.552,11.886C152.549,10.264 151.815,9.138 150.732,8.374ZM89.432,8.374C88.349,7.609 86.619,7.216 84.244,7.216C83.067,7.216 81.886,7.329 80.702,7.554C79.638,7.756 78.979,7.927 78.416,8.088L78.263,8.244L77.492,12.193L77.741,12.343C78.236,12.115 78.963,11.835 79.919,11.496C80.9,11.151 81.801,10.978 82.615,10.978C83.807,10.978 84.709,11.141 85.333,11.478C85.966,11.82 86.419,12.571 86.419,13.397C86.419,13.601 86.405,13.78 86.377,13.942C86.344,14.094 86.326,14.206 86.318,14.27L86.306,14.354C86.306,14.354 85.922,14.381 85.513,14.416C85.244,14.442 84.896,14.481 84.501,14.527C83.849,14.597 83.099,14.689 82.448,14.799C80.877,15.06 76.467,15.747 75.142,18.702C73.754,21.123 73.992,24.335 75.355,25.898C75.832,26.451 76.567,26.971 77.559,27.171L77.557,27.174C77.599,27.189 77.752,27.208 77.784,27.216C81.601,27.806 84.338,24.482 84.338,24.482L83.928,26.531L84.095,26.675L88.384,26.531L88.561,26.376L91.081,13.704C91.136,13.437 91.179,13.121 91.214,12.762C91.239,12.398 91.258,12.103 91.258,11.886C91.254,10.264 90.523,9.138 89.432,8.374ZM63.589,2.531L62.691,7.155L62.493,7.218C62.136,6.716 61.92,6.519 61.423,6.135C60.319,5.285 59.009,4.804 57.672,4.804C56.624,4.804 55.753,5.131 55.149,5.676C54.54,6.219 54.194,6.992 54.194,7.855C54.197,9.487 55.314,10.283 57.299,11.472L58.071,11.91C59.734,13 62.317,14.672 62.317,18.467C62.311,22.78 59.548,27.107 52.919,27.117C51.294,27.117 49.703,26.826 48.172,26.255C47.139,25.859 46.641,25.516 46.016,25.053L45.964,24.756L46.844,20.245L47.041,20.179C47.44,20.695 47.94,21.117 48.688,21.612C50.285,22.677 51.817,22.791 52.47,22.791C54.81,22.789 56.65,21.453 56.65,19.378C56.648,17.52 55.179,16.589 53.645,15.685L52.584,15.031C50.914,13.939 48.599,12.454 48.592,8.731C48.592,7.299 49.004,5.244 50.272,3.561C51.944,1.348 54.573,0.553 57.221,0.553C60.63,0.553 62.58,1.76 63.494,2.345L63.589,2.531ZM116.943,8.163L117,8.072L116.939,8.163C115.906,7.454 114.412,7.125 112.949,7.125C109.633,7.128 107.263,8.768 105.704,11.072C104.154,13.383 103.424,16.36 103.424,19.01C103.424,20.925 103.712,22.711 104.879,24.323C105.454,25.11 106.848,27.001 111.354,27.007C114.483,27.005 115.965,26.194 116.768,25.725L116.902,25.544C117.059,24.858 117.587,21.743 117.802,20.962L117.64,20.838C116.058,22.092 114.333,23.008 112.374,23.008C111.06,23.008 110.061,22.696 109.387,22.094C108.715,21.497 108.386,20.614 108.386,19.52C108.386,19.117 108.419,18.749 108.45,18.346L108.46,18.251L108.552,18.248C111.615,18.17 113.176,18.128 115.741,18.128C116.579,18.128 117.524,18.132 118.665,18.141L118.863,18.003C119.118,16.814 119.394,15.454 119.394,13.781C119.394,12.296 119.236,9.656 116.943,8.163ZM103.258,11.289L103.054,11.491L100.098,11.415L98.729,17.861C98.54,18.669 98.122,20.686 98.122,21.336C98.118,21.943 98.347,22.357 98.667,22.603C98.983,22.852 99.379,22.934 99.733,22.935C100.555,22.935 100.842,22.706 101.39,22.497L101.487,22.587L100.76,26.3L100.51,26.543C99.498,26.757 98.745,26.933 97.68,26.933C94.93,26.917 92.945,25.994 92.934,22.789C92.934,21.289 93.54,18.558 93.991,16.528L95.082,11.411L92.761,11.49L92.621,11.288L93.3,7.682L93.511,7.566L95.869,7.566L96.812,2.817L96.996,2.609C99.357,2.005 100.038,1.714 102.189,1.006L102.303,1.134L101.59,4.193L100.851,7.638L103.879,7.545L103.958,7.703L103.258,11.289ZM74.691,11.289L74.485,11.491L71.532,11.415L70.164,17.861C69.972,18.669 69.552,20.686 69.552,21.336C69.551,21.943 69.778,22.357 70.097,22.603C70.417,22.852 70.811,22.934 71.164,22.935C71.987,22.935 72.275,22.706 72.821,22.497L72.919,22.587L72.193,26.3L71.943,26.543C70.935,26.757 70.178,26.933 69.111,26.933C66.367,26.917 64.378,25.994 64.367,22.789C64.367,21.289 64.975,18.558 65.424,16.528L66.514,11.411L64.192,11.49L64.052,11.288L64.733,7.682L64.943,7.566L67.3,7.566L68.244,2.817L68.429,2.609C70.786,2.005 71.469,1.714 73.624,1.006L73.734,1.134L73.021,4.193L72.288,7.64L75.31,7.547L75.393,7.705L74.691,11.289ZM192.333,11.735C192.333,12.882 192.074,14.073 191.82,15.232L189.633,26.398L189.465,26.533L184.537,26.707L184.415,26.533C184.415,26.533 186.94,14.199 186.94,13.586C186.94,13.027 186.645,11.529 185.077,11.529C183.842,11.529 182.565,12.776 182.565,12.776L179.904,26.399L179.74,26.534L177.619,26.608L175.72,26.672L174.782,26.703L174.725,26.626L174.664,26.533C174.664,26.533 175.045,24.656 175.517,22.331L175.504,22.331C176.24,18.695 177.181,13.96 177.181,13.586C177.181,13.027 176.887,11.529 175.317,11.529C174.086,11.529 172.809,12.776 172.809,12.776L170.147,26.399L169.979,26.534L169.218,26.56L165.024,26.701L164.917,26.534L168.611,7.568L168.797,7.381L173.712,6.918L173.911,7.117L173.39,9.787C173.39,9.787 175.762,7.187 178.786,7.127C181.608,7.074 182.198,9.787 182.198,9.787C182.198,9.787 185.006,7.065 188.001,7.127C189.516,7.139 192.325,7.807 192.333,11.735ZM167.128,6.958L166.078,12.408L165.858,12.631C165.558,12.577 165.176,12.533 164.724,12.533C163.309,12.533 161.297,12.987 159.723,15.073L159.706,15.09L157.538,26.399L157.385,26.534L152.677,26.677L152.555,26.553L156.258,7.568L156.459,7.369L161.119,6.918L161.303,7.117L160.766,9.867L160.995,9.659C161.969,8.776 162.833,8.166 163.798,7.616C164.754,7.066 165.713,6.793 166.677,6.793C166.77,6.793 166.865,6.793 166.965,6.797L167.128,6.958ZM139.712,5.206L139.549,5.387L131.748,5.368L130.479,11.877L137.306,11.671L137.407,11.833C136.845,13.704 136.715,14.233 136.337,15.865L136.164,16.03L129.672,16.016L128.819,20.532L127.739,26.397L127.595,26.532L122.004,26.676L121.936,26.532L122.905,21.539L124.388,14.49C125.506,9.013 125.826,7.264 126.883,1.297L127.051,1.133L135.22,1.133L140.408,0.997L140.508,1.133L139.712,5.206ZM31.338,25.836C28.89,25.836 26.618,25.18 24.938,23.972C23.481,22.929 22.652,21.58 22.652,20.172C22.658,18.281 24.098,17.004 24.94,16.405C26.622,15.216 28.905,14.567 31.363,14.563C33.83,14.567 36.119,15.215 37.821,16.41C38.67,17.008 40.119,18.288 40.123,20.172C40.1,23.32 36.051,25.829 31.338,25.836ZM10.614,25.836C8.163,25.836 5.893,25.18 4.211,23.972C2.757,22.929 1.93,21.58 1.93,20.172C1.938,18.281 3.373,17.001 4.212,16.405C5.898,15.216 8.179,14.567 10.638,14.563C13.105,14.567 15.395,15.215 17.092,16.41C17.942,17.008 19.397,18.285 19.405,20.172C19.376,23.32 15.326,25.829 10.614,25.836ZM15.992,17.072C14.634,16.251 12.733,15.734 10.61,15.734C8.485,15.734 6.595,16.251 5.247,17.068C3.896,17.89 3.103,18.989 3.1,20.172C3.103,21.359 3.892,22.474 5.24,23.306C6.582,24.129 8.469,24.657 10.594,24.661C12.719,24.656 14.624,24.129 15.986,23.302C17.351,22.474 18.157,21.359 18.161,20.176C18.156,18.997 17.354,17.894 15.992,17.072ZM36.773,17.072C35.413,16.251 33.511,15.734 31.387,15.734C29.264,15.734 27.371,16.251 26.026,17.068C24.675,17.889 23.884,18.989 23.882,20.175C23.884,21.358 24.671,22.473 26.02,23.305C27.363,24.128 29.249,24.656 31.372,24.66C33.495,24.655 35.402,24.128 36.766,23.301C38.131,22.473 38.937,21.358 38.939,20.175C38.937,18.997 38.135,17.894 36.773,17.072ZM146.319,21.044C146.319,21.044 145.294,22.654 143.818,23.231C142.337,23.804 141.268,23.352 140.85,22.779C140.512,22.331 139.81,20.917 141.143,19.326C142.495,17.719 146.963,17.616 146.963,17.616L146.319,21.044ZM85.022,21.044C85.022,21.044 84,22.654 82.522,23.231C81.042,23.804 79.975,23.352 79.552,22.779C79.217,22.331 78.516,20.917 79.852,19.326C81.199,17.719 85.671,17.616 85.671,17.616L85.022,21.044ZM21.03,18.364C20.566,17.027 19.602,15.833 18.287,14.888C19.15,15.049 20.055,15.135 20.988,15.135C21.948,15.135 22.875,15.045 23.759,14.879C22.448,15.825 21.485,17.02 21.03,18.364ZM114.914,14.669L114.897,14.756L111.895,14.794L108.927,14.833L108.954,14.733L108.968,14.689C109.028,14.481 109.093,14.252 109.168,14.019C109.372,13.365 109.664,12.653 110.181,12C110.272,11.889 110.367,11.775 110.468,11.669C111.388,10.663 112.259,10.507 112.823,10.507C113.618,10.507 114.2,10.825 114.574,11.298C114.637,11.381 114.69,11.462 114.742,11.555C114.927,11.87 115.04,12.228 115.081,12.603C115.101,12.737 115.108,12.878 115.108,13.013C115.109,13.575 115.009,14.127 114.914,14.669ZM200,10.928C199.986,12.602 198.77,13.866 197.179,13.852C195.597,13.839 194.395,12.556 194.408,10.882C194.422,9.174 195.621,7.936 197.244,7.949C198.818,7.962 200.014,9.254 200,10.928ZM194.775,10.875C194.763,12.308 195.841,13.482 197.181,13.493C198.52,13.505 199.621,12.348 199.633,10.908C199.639,10.222 199.384,9.523 198.954,9.06C198.534,8.604 197.867,8.314 197.26,8.309C195.843,8.297 194.788,9.394 194.775,10.875ZM12.31,7.536C12.317,5.645 13.753,4.368 14.595,3.773C16.279,2.576 18.561,1.931 21.019,1.931C23.485,1.931 25.775,2.579 27.472,3.773C28.321,4.372 29.774,5.651 29.781,7.536C29.753,10.688 25.706,13.197 20.993,13.204C18.545,13.204 16.273,12.549 14.596,11.343C13.135,10.296 12.31,8.947 12.31,7.536ZM197.083,9.229C197.437,9.233 197.602,9.25 197.804,9.319C198.154,9.439 198.377,9.774 198.374,10.152C198.371,10.554 198.119,10.871 197.714,10.993L198.377,12.589L197.908,12.586L197.294,11.073L197.262,11.065L196.966,11.062L196.65,11.06L196.6,11.068L196.586,12.575L196.16,12.571L196.188,9.222L197.083,9.229ZM15.653,10.676C16.996,11.505 18.883,12.032 21.007,12.032C23.128,12.032 25.033,11.505 26.396,10.676C27.764,9.848 28.57,8.73 28.573,7.55C28.57,6.367 27.769,5.26 26.407,4.439C25.049,3.619 23.149,3.103 21.022,3.099C18.899,3.103 17.009,3.619 15.66,4.439C14.31,5.261 13.517,6.364 13.514,7.547C13.517,8.733 14.308,9.848 15.653,10.676ZM197.045,10.719C197.458,10.723 197.616,10.698 197.743,10.6C197.874,10.508 197.955,10.341 197.956,10.158C197.959,9.916 197.85,9.739 197.64,9.663C197.524,9.609 197.34,9.593 196.972,9.589L196.613,9.587L196.602,10.716L197.045,10.719Z" style="fill:rgb(237,29,36);fill-rule:nonzero;"/>
    </g>
</svg>
